chrome/browser/resources/chromeos/chromevox/images/chromevox.svg

<svg width="96" height="96" viewBox="0 0 96 96" xmlns="http://www.w3.org/2000/svg"><path fill="#f79439" d="M10 0h76q10 0 10 10v76q0 10-10 10H10Q0 96 0 86V10Q0 0 10 0z"/><path fill="#fff" d="M10.11 8.9c8.93-.37 17.87-.35 26.81-.03 3.57 5.7 6.13 11.94 9.32 17.84 1.91 3.52 3.61 7.16 4.93 10.95-3.16 1.96-6.28 3.99-9.39 6.05-.24 3.13-.41 6.26-.63 9.39-4.99 1.4-10.11 2.23-15.18 3.22 4.38 2.25 8.87 4.3 13.12 6.79-.31 6.57-1.05 13.11-2.3 19.56-8.84 1.93-17.79 3.35-26.7 4.92-.11-26.22-.27-52.46.02-78.69zm58.23 7.08c14.49 9.59 19.97 29.57 14.3 45.69-2.66 7.88-8 14.67-14.69 19.54-1.43-1.94-2.81-3.9-4.16-5.89 3.56-3.63 7.36-7.19 9.76-11.73 5.27-9.68 4.96-22.07-.6-31.56-2.33-3.95-5.75-7.09-8.88-10.4 1.41-1.89 2.83-3.77 4.27-5.65z"/><path fill="#fff" d="M55.94 30.88c1.52-1.65 3.05-3.28 4.62-4.88 6.36 5.18 11.08 12.76 11.2 21.14.61 9.27-4.12 18.39-11.75 23.58-1.33-1.76-2.65-3.52-3.96-5.29 4.63-4.65 9.11-10.38 8.7-17.35.33-6.96-4.53-12.34-8.81-17.2z"/></svg>

<?xml version="1.0" encoding="UTF-8" ?>
<!DOCTYPE svg PUBLIC "-//W3C//DTD SVG 1.1//EN" "http://www.w3.org/Graphics/SVG/1.1/DTD/svg11.dtd">
<svg width="96px" height="96px" viewBox="0 0 96 96" version="1.1" xmlns="http://www.w3.org/2000/svg">
<path fill="#f79439" d="M 10.0 0.0 L 86.0 0.0 Q 96.0 0.0 96.0 10.0 L 96.0 86.0 Q 96.0 96.0 86.0 96.0 L 10.0 96.0 Q 0.0 96.0 0.0 86.0 L 0.0 10.0 Q 0.0 0.0 10.0 0.0 Z" />
<path fill="#ffffff" d="M 10.11 8.9 C 19.04 8.53 27.98 8.55 36.92 8.87 C 40.49 14.57 43.05 20.81 46.24 26.71 C 48.15 30.23 49.85 33.87 51.17 37.66 C 48.01 39.62 44.89 41.65 41.78 43.71 C 41.54 46.84 41.37 49.97 41.15 53.1 C 36.16 54.5 31.04 55.33 25.97 56.32 C 30.35 58.57 34.84 60.62 39.09 63.11 C 38.78 69.68 38.04 76.22 36.79 82.67 C 27.95 84.6 19.0 86.02 10.09 87.59 C 9.98 61.37 9.82 35.13 10.11 8.9 Z" />
<path fill="#ffffff" d="M 68.34 15.98 C 82.83 25.57 88.31 45.55 82.64 61.67 C 79.98 69.55 74.64 76.34 67.95 81.21 C 66.52 79.27 65.14 77.31 63.79 75.32 C 67.35 71.69 71.15 68.13 73.55 63.59 C 78.82 53.91 78.51 41.52 72.95 32.03 C 70.62 28.08 67.2 24.94 64.07 21.63 C 65.48 19.74 66.9 17.86 68.34 15.98 Z" />
<path fill="#ffffff" d="M 55.94 30.88 C 57.46 29.23 58.99 27.6 60.56 26.0 C 66.92 31.18 71.64 38.76 71.76 47.14 C 72.37 56.41 67.64 65.53 60.01 70.72 C 58.68 68.96 57.36 67.2 56.05 65.43 C 60.68 60.78 65.16 55.05 64.75 48.08 C 65.08 41.12 60.22 35.74 55.94 30.88 Z" />
</svg>
